src/assets/star.svg

<svg width="19" height="30" viewBox="0 0 19 30" fill="none" xmlns="http://www.w3.org/2000/svg">
<path d="M8.25623 6.76902C8.25623 12.5008 8.5046 12.3917 7.51654 12.3944C3.58888 12.3944 2.60355 12.5227 1.13784 12.6073C-0.327869 12.6919 -0.194116 13.7291 0.512809 14.1631C2.46709 15.3422 4.71069 15.9563 6.99251 15.9372C8.71206 16.1037 7.90687 15.5223 8.77483 23.5169C9.26886 28.0887 9.69192 29.9092 10.5763 29.2733C12.2003 28.1051 11.9082 20.348 12.1675 16.7397C12.2276 15.8717 12.042 15.7898 16.4036 15.798C17.2497 15.798 18.3934 15.899 18.6418 14.8673C19.0212 13.2897 18.7537 12.5172 15.6394 12.4108C12.0447 12.2798 11.9164 12.5336 11.8809 11.7339C11.81 8.28222 11.5507 4.83684 11.103 1.41385C11.103 1.03882 10.9529 0.679083 10.6882 0.414054C10.4234 0.149025 10.0631 0 9.68919 0C9.31526 0 8.95496 0.149025 8.6902 0.414054C8.42545 0.679083 8.27533 1.03882 8.27533 1.41385C8.17707 3.19727 8.17162 4.98478 8.25623 6.76902Z" fill="#151515"/>
</svg>

<svg width="19" height="30" fill="none" xmlns="http://www.w3.org/2000/svg"><path d="M8.256 6.769c0 5.732.249 5.623-.74 5.625-3.927 0-4.912.129-6.378.213-1.466.085-1.332 1.122-.625 1.556a12.345 12.345 0 0 0 6.48 1.774c1.72.167.914-.415 1.782 7.58.494 4.572.917 6.392 1.801 5.756 1.624-1.168 1.332-8.925 1.591-12.533.06-.868-.125-.95 4.237-.942.846 0 1.99.101 2.238-.93.38-1.578.112-2.35-3.003-2.457-3.594-.131-3.723.123-3.758-.677a94.55 94.55 0 0 0-.778-10.32A1.416 1.416 0 0 0 9.689 0a1.414 1.414 0 0 0-1.414 1.414 52.308 52.308 0 0 0-.019 5.355z" fill="#151515"/></svg>
